X:11
T:Engelska 
R:Engelska
O:Sweden
M:4/4
A:Sk\aa{}ne
K:D
A2|\
f2fe f2eg|f2fe d2A2|defg afed|e6 ::
A2|\
Acec Acec|Acec A2g2|fafd egec|d6 ::
f2|\
a2af a2af|abag fefd|d2df e2eg|fgag fgef|\
d2dg e2eg|fgag fgef|d6:|
